src/lib/packages/icons/src/assets/filled/shield-exclamation.svg

<svg width="24" height="24" viewBox="0 0 24 24" fill="none" xmlns="http://www.w3.org/2000/svg">
<path d="M12.0181 2C9.77807 3.111 8 4 3 5C3 6.137 3 9.70192 3 10.8889C3 17.5559 8.667 20.889 12 22C15.333 20.889 21 17.5559 21 10.8889C21 9.66392 21 6.194 21 5C16 4 14.2221 3.111 12.0181 2ZM11.25 8.5C11.25 8.086 11.586 7.75 12 7.75C12.414 7.75 12.75 8.086 12.75 8.5V11.5C12.75 11.914 12.414 12.25 12 12.25C11.586 12.25 11.25 11.914 11.25 11.5V8.5ZM12.02 15.5C11.468 15.5 11.0149 15.052 11.0149 14.5C11.0149 13.948 11.458 13.5 12.01 13.5H12.02C12.573 13.5 13.02 13.948 13.02 14.5C13.02 15.052 12.572 15.5 12.02 15.5Z" fill="currentColor"/>
</svg>

<svg xmlns="http://www.w3.org/2000/svg" width="24" height="24" fill="none"><path fill="currentColor" d="M12.018 2C9.778 3.111 8 4 3 5v5.889c0 6.667 5.667 10 9 11.111 3.333-1.111 9-4.444 9-11.111V5c-5-1-6.778-1.889-8.982-3Zm-.768 6.5a.75.75 0 0 1 1.5 0v3a.75.75 0 0 1-1.5 0v-3Zm.77 7a1.005 1.005 0 0 1-1.005-1c0-.552.443-1 .995-1h.01a1 1 0 1 1 0 2Z"/></svg>
